X: 17506
T: Hills Of Glenorchy, The
R: jig
M: 6/8
K: Adorian
a|:ede ABA|ede g3|BAB GDG|BAB d2 g|
ede ABA|ede g2 a|geg dBG|1 ABA A2 a:|2 ABA A2 e||
aba age|aga b2a|gag ged|gdg gbg|
aba age|aga b2a|geg dBG|ABA A2 e|
aba age|aga b2a|gag ged|gdg gbg|
c'c'c' bbb|aaa eed|ege dBG|ABA A2 a||

